dist/images/joy/advantages5.svg

<svg width="126" height="126" viewBox="0 0 126 126" fill="none" xmlns="http://www.w3.org/2000/svg">
<circle cx="63" cy="63" r="61.5" stroke="#E2704C" stroke-width="3"/>
<path d="M37.6047 49.9367H48.2706C51.3613 49.9367 53.8758 47.4227 53.8758 44.332C53.8758 41.7207 52.0812 39.5212 49.6607 38.9013C48.9338 35.9019 46.2261 33.668 43.0065 33.668H42.8688C39.6497 33.668 36.942 35.9019 36.2151 38.9013C33.7946 39.5212 32 41.7211 32 44.332C32 47.4227 34.5141 49.9367 37.6047 49.9367ZM37.6047 42.301H39.5971V40.5139C39.5971 38.71 41.0649 37.2422 42.8693 37.2422H43.0065C44.8109 37.2422 46.2787 38.71 46.2787 40.5139V42.301H48.2711C49.3908 42.301 50.3016 43.2122 50.3016 44.332C50.3016 45.4517 49.3908 46.3625 48.2711 46.3625H37.6047C36.485 46.3625 35.5742 45.4517 35.5742 44.332C35.5742 43.2122 36.485 42.301 37.6047 42.301Z" fill="#373737"/>
<path d="M91.6588 73.2758C88.3462 72.4227 84.959 71.6422 81.5021 70.9339V66.4699H82.3677C87.0389 66.4699 90.8388 62.6695 90.8388 57.9988V45.9502C90.8388 41.2791 87.0389 37.4791 82.3677 37.4791H77.0622C72.3916 37.4791 68.5912 41.2791 68.5912 45.9502V57.9988C68.5912 62.6695 72.3916 66.4699 77.0622 66.4699H77.9279V70.2326C64.2099 67.6543 49.4356 66.1897 33.8254 65.87L32.002 65.8323V91.447H93.0001V73.6216L91.6588 73.2758ZM77.0622 62.8956C74.362 62.8956 72.1654 60.699 72.1654 57.9988V45.9502C72.1654 43.25 74.362 41.0533 77.0622 41.0533H82.3677C85.0679 41.0533 87.2646 43.25 87.2646 45.9502V57.9988C87.2646 60.699 85.0679 62.8956 82.3677 62.8956H81.5021V58.5959L85.8019 54.9216L83.48 52.2042L81.5021 53.8949V49.5914H77.9279V53.8949L75.95 52.2046L73.6281 54.9216L77.9279 58.5963V62.8956H77.0622ZM35.5757 80.9887H39.149V87.8728H35.5757V80.9887ZM53.4463 87.8728H49.8717V80.9887H53.4463V87.8728ZM57.0201 80.9887H60.5948V87.8728H57.0201V80.9887ZM46.2974 87.8728H42.7227V80.9887H46.2974V87.8728ZM89.4259 87.8728H64.169V80.9887H68.4581V77.4145H64.169V74.436H60.5948V77.4145H57.0201V74.436H53.4463V77.4145H49.8717V74.436H46.2974V77.4145H42.7227V74.436H39.149V77.4145H35.5757V69.4861C50.5679 69.8817 64.7526 71.3528 77.9279 73.8705V76.9137H81.5021V74.5835C84.1879 75.1434 86.8299 75.7475 89.4259 76.3967V87.8728Z" fill="#373737"/>
</svg>

<svg width="126" height="126" fill="none" xmlns="http://www.w3.org/2000/svg"><circle cx="63" cy="63" r="61.5" stroke="#E2704C" stroke-width="3"/><path d="M37.605 49.937H48.27a5.611 5.611 0 005.605-5.605 5.615 5.615 0 00-4.215-5.43c-.727-3-3.435-5.234-6.654-5.234h-.138c-3.22 0-5.927 2.234-6.654 5.233A5.615 5.615 0 0032 44.332a5.61 5.61 0 005.605 5.605zm0-7.636h1.992v-1.787a3.276 3.276 0 013.272-3.272h.138a3.276 3.276 0 013.272 3.272V42.3h1.992a2.031 2.031 0 010 4.061H37.605a2.031 2.031 0 010-4.061zm54.054 30.975c-3.313-.853-6.7-1.634-10.157-2.342V66.47h.866c4.67 0 8.47-3.8 8.47-8.471V45.95c0-4.67-3.8-8.47-8.47-8.47h-5.306c-4.67 0-8.47 3.8-8.47 8.47V58c0 4.67 3.8 8.47 8.47 8.47h.866v3.764c-13.718-2.58-28.492-4.044-44.103-4.364l-1.823-.038v25.615H93V73.622l-1.341-.346zm-14.597-10.38a4.902 4.902 0 01-4.897-4.897V45.95c0-2.7 2.197-4.897 4.897-4.897h5.306c2.7 0 4.897 2.197 4.897 4.897V58c0 2.7-2.197 4.897-4.897 4.897h-.866v-4.3l4.3-3.674-2.322-2.718-1.978 1.69v-4.303h-3.574v4.304l-1.978-1.69-2.322 2.717 4.3 3.674v4.3h-.866zM35.576 80.989h3.573v6.884h-3.573v-6.884zm17.87 6.884h-3.574v-6.884h3.574v6.884zm3.574-6.884h3.575v6.884H57.02v-6.884zm-10.723 6.884h-3.574v-6.884h3.574v6.884zm43.129 0H64.169v-6.884h4.29v-3.575h-4.29v-2.978h-3.574v2.978H57.02v-2.978h-3.574v2.978h-3.574v-2.978h-3.575v2.978h-3.574v-2.978h-3.574v2.978h-3.573v-7.928c14.992.396 29.177 1.867 42.352 4.385v3.043h3.574v-2.33a204.32 204.32 0 017.924 1.813v11.476z" fill="#373737"/></svg>
